svg/intersecting-circles.svg

<?xml version="1.0" encoding="UTF-8" standalone="no"?>
<svg width="30px" height="30px" viewBox="0 0 30 30" version="1.1" xmlns="http://www.w3.org/2000/svg" xmlns:xlink="http://www.w3.org/1999/xlink">
    <!-- Generator: Sketch 40 (33762) - http://www.bohemiancoding.com/sketch -->
    <title>intersecting-circles</title>
    <desc>Created with Sketch.</desc>
    <defs></defs>
    <g id="Page-1" stroke="none" stroke-width="1" fill="none" fill-rule="evenodd">
        <g id="intersecting-circles" fill="#000000">
            <path d="M15,0 C6.71572875,0 0,6.71572875 0,15 C8.28427125,15 15,8.28427125 15,0 Z M0,15 C0,23.2842712 6.71572875,30 15,30 C15,21.7157288 8.28427125,15 0,15 Z M30,15 C30,6.71572875 23.2842712,0 15,0 C15,8.28427125 21.7157288,15 30,15 Z M30,15 C30,23.2842712 23.2842712,30 15,30 C15,21.7157288 21.7157288,15 30,15 Z" id="Combined-Shape"></path>
        </g>
    </g>
</svg>

<svg width="30" height="30" xmlns="http://www.w3.org/2000/svg"><path d="M15 0C6.716 0 0 6.716 0 15c8.284 0 15-6.716 15-15ZM0 15c0 8.284 6.716 15 15 15 0-8.284-6.716-15-15-15Zm30 0c0-8.284-6.716-15-15-15 0 8.284 6.716 15 15 15Zm0 0c0 8.284-6.716 15-15 15 0-8.284 6.716-15 15-15Z" fill="#000" fill-rule="evenodd"/></svg>
